<?xml version="1.0" encoding="UTF-8"?>
<map version="1.10" tiledversion="1.10.1" orientation="orthogonal" renderorder="right-down" width="21" height="12" tilewidth="32" tileheight="32" infinite="0" nextlayerid="3" nextobjectid="1">
 <tileset firstgid="1" name="tiles" tilewidth="32" tileheight="32" tilecount="49" columns="7">
  <image source="tiles.png" width="240" height="240"/>
 </tileset>
 <layer id="1" name="collision" width="21" height="12">
  <data encoding="csv">
1,3,3,3,3,3,3,3,3,3,3,3,3,3,3,3,3,3,3,3,2,
10,0,0,0,0,0,0,0,0,0,0,0,0,0,0,0,0,0,0,0,4,
10,0,0,0,0,0,0,0,0,0,0,0,0,0,0,0,0,0,0,0,4,
10,0,0,0,0,0,0,0,0,0,0,0,0,0,0,0,0,0,0,0,4,
10,0,0,0,0,0,0,0,0,0,0,0,0,0,0,0,0,0,0,0,4,
10,0,0,0,0,0,0,0,0,0,0,0,0,0,0,0,0,0,0,0,4,
10,0,0,0,0,0,0,0,0,0,0,0,0,0,0,0,0,0,0,0,4,
10,0,0,0,0,0,0,0,0,0,0,0,0,0,0,0,0,0,0,0,4,
10,0,0,0,0,0,0,0,0,0,0,0,0,0,0,0,0,0,0,0,4,
10,0,0,0,0,0,0,0,0,0,0,0,0,0,0,0,0,0,0,0,4,
10,0,0,0,0,0,0,0,0,0,0,0,0,0,0,0,0,0,0,0,4,
8,11,11,11,11,11,11,11,11,11,11,11,11,11,11,11,11,11,11,11,9
</data>
 </layer>
 <layer id="2" name="effects" width="21" height="12">
  <data encoding="csv">
0,0,0,0,0,17,0,0,0,0,17,0,0,0,0,0,0,0,0,0,0,
0,0,0,0,0,0,0,0,0,0,0,0,0,0,0,0,0,0,0,0,0,
0,0,0,0,0,0,0,0,0,0,0,0,0,0,0,0,0,0,0,0,0,
0,0,0,0,0,0,0,0,0,0,0,0,0,0,0,0,0,0,0,0,16,
15,0,0,0,0,0,0,0,0,0,0,0,0,0,0,0,0,0,0,0,16,
0,0,0,0,0,0,0,0,0,0,0,0,0,0,0,0,0,0,0,0,16,
15,0,0,0,0,0,0,0,0,0,0,0,0,0,0,0,0,0,0,0,16,
0,0,0,0,0,0,0,0,0,0,0,0,0,0,0,0,0,0,0,0,0,
0,0,0,0,0,0,0,0,0,0,0,0,0,0,0,0,0,0,0,0,0,
15,0,0,0,0,0,0,0,0,0,0,0,0,0,0,0,0,0,0,0,16,
0,0,0,0,0,0,0,0,0,0,0,0,0,0,0,0,0,0,0,0,0,
15,0,0,0,0,0,18,18,18,18,0,0,0,0,0,0,0,0,0,0,0
</data>
 </layer>
</map>
